X: 69
M:2/4
L:1/16
K:D
vFE|DF"4"AF DFA,F|EG"4"AG EGA,G|FAdF GBec|Adfd cAGE|
|:vcd|"4"ecAc EAce|fdAd FAdf|g2(fg) efdf|edcB A2(cd)|
ecAc EAce|fdAd FAdf|gbag fedc|d2d2d2:|


